X:1
T:Donna ritrosa-O Clorinda
T:Giovanni Stefani
T:Source : Affetto amorosi-Canzonette ad una voce sola---Venetia---A.Vincenti---1621. Editor : André Vierendeels (19/11/15).
T:Notes : Original clefs : C1, F4 Alfabetto et intavolatura per la chitarra Spagnola Terza impressione (first print 1618)
T:O Clorinda- Donna ritrosa
C:Giovanni Stefani
%%score 1 { ( 2 3 ) | 4 }
L:1/8
Q:1/4=80
M:3/4
K:C
V:1 treble nm="Soprano" snm="S"
V:2 treble nm="BC" snm="BC"
V:3 treble 
V:4 bass 
V:1
 z4 d2 |: d3 c B2 | e2 d2 c2 | B3 c d2 | G2 A2 B2 | c3 c B2 | AB A3 G |1 G4 d2 :|2 G6 |: A6 | %10
w: O|Clo- rin- da,|gia che s'a-|dor- na- no|i pra- i'e|tor- na- no|piu _ lie- t'i|di. O|di.|Deh|
w: Si|strug- go- no|ne'i mon- ti'al-|tis- si- mi,|giac- ci du-|ris- si- mi,|che'l _ sol di-|sta. Si|sta.|Ah|
w: Giu-|ra- sti- mi|che pri- ma|uc- ci- de-|te che noi|di- vi- der'|mor- * te po-|tra. Giu|ta.|ahi|
w: Hor|go- da- si|la stag- gion|flo- ri- da,|su vie- ne'O|Clo- rin- da,|ne _ fug- gir|piu. Hor|piu.|Gia|
w: Hor|mor- mo- ra|qui la dolc'|au- * ra,|ch'el- cor re-|sta- u- ra,|la _ not- t'e'l|di. Hor|di.|Deh|
 ^F3 E D2 | E2 E2 E2 | ^F6 | A2 B2 c2 | d3 c B2 | Bc A3 G | G6 :| %17
w: ri- gi- da|hor per- che|tu|qual ne- ve|fri- gi- da|t'in- * du- ri|piu.|
w: Clo- rin- da|non de- sta'in|te,|la stag- gion|flo- ri- da|pie- * ta di|me.|
w: mi- se- ro|dim- mi chi|fu,|che ne di-|vi- se- ro,|A- * mor, O|tu.|
w: Fil- li- de|lie- ta ne|va,|con A- ma-|ril- li- de,|dov' _ A- mor|sta.|
w: sen- ti- la|Clo- rin- da|tu,|che dol- ce|ven- ti- la,|d'A- * mor qui|giu.|
V:2
 B6 |: G3 A B2 | G2 B2 c2 | d3 c B2 | c2 A2 G2 | A4 G2 | D2 E2 ^F2 |1 G4 B2 :|2 G6 |: A6- | A6 | %11
 ^c6 | A6 | c2 G2 ^F2 | G2 A2 B2 | G4 ^F2 | G6 :| %17
V:3
 G6 |: D3 E D2 | E2 G2 E2 | G3 A G2 | C2 D2 D2 | E4 D2 | B,2 A,2 D2 |1 B,4 D2 :|2 D6 |: ^F6- | F6 | %11
 E6 | D6 | E2 D2 C2 | D6 | E2 D4 | B,6 :| %17
V:4
 z4 B,,2 |: B,,3 A,, G,,2 | C,2 B,,2 A,,2 | G,,3 B,, B,,2 | E,2 F,2 G,2 | C,2 A,,2 B,,2 | %6
 G,,2 C,2 D,2 |1 G,,4 B,,2 :|2 G,,6 |: D,6 | D,6 | A,,2 G,,2 A,,2 | D,6 | C,2 B,,2 A,,2 | G,,6 | %15
 C,2 D,4 | G,,6 :| %17

